X: 160715
T: Pat McNulty's Fancy
S: "The Piper's Dream"
C: Pat McNulty
Z: B.Black
L: 1/8
M: 4/4
R: reel
K: A
E2 | (3AAA GA EAce | agfe ^decA | (3BBB ^AB FBdc |\
BEGB e^d=dB |
(3AAA GA EAce | agfe ^deac | Bcde fagf | ecdB A2 :|
eg | ac (3ccc eace | ae^de cABc | df (3fff bfdf |\
bgeb gefg |
ac (3ccc eace | ae^de cABc | defg afed | cdBc A2 :|
